components/ui-node-icon/src/folderSource/folderSource.medium.svg

<svg width="24" height="24" viewBox="0 0 24 24" fill="none" xmlns="http://www.w3.org/2000/svg">
  <path fill-rule="evenodd" clip-rule="evenodd" d="M5 4C3.34315 4 2 5.34315 2 7V18C2 19.6569 3.34315 21 5 21H19C20.6569 21 22 19.6569 22 18V10C22 8.34315 20.6569 7 19 7H13L11.8906 5.3359C11.3342 4.5013 10.3975 4 9.39445 4H5Z" fill="var(--tbl--colors--icons--misc--folder)"/>
  <path d="M2 6C2 4.89543 2.89543 4 4 4H9.39445C10.3975 4 11.3342 4.5013 11.8906 5.3359L13 7H2V6Z" fill="white" fill-opacity="0.3"/>
</svg>

<svg xmlns="http://www.w3.org/2000/svg" width="24" height="24" fill="none" viewBox="0 0 24 24">
  <path fill="var(--tbl--colors--icons--misc--folder)" fill-rule="evenodd" d="M5 4a3 3 0 0 0-3 3v11a3 3 0 0 0 3 3h14a3 3 0 0 0 3-3v-8a3 3 0 0 0-3-3h-6l-1.11-1.664A3 3 0 0 0 9.395 4H5Z" clip-rule="evenodd"/>
  <path fill="#fff" fill-opacity=".3" d="M2 6a2 2 0 0 1 2-2h5.394a3 3 0 0 1 2.497 1.336L13 7H2V6Z"/>
</svg>
